X:7918
T:Dans mes yeux
T:From "Les Cloches de Corneville"
C:Robert Planquette
Z:Transcribed by Frank Nordberg - http://www.musicaviva.com
F:http://abc.musicaviva.com/tunes/planquette-robert/dans-mes-yeux.abc
M:3/4
L:1/4
K:F
"^Valse moderato"(Ac>d)|d3|(Ac>e)|e3|(Ac>f)|f3|(de>c|B3)|
(GB>c)|c3|(GB>d)|d3|(Bc>g)|g3|(gf>c|A3)|
(Ac>d)|d3|(Ac>e)|e3|(Ac>a)|a3|(gb>a)|(g2f)|
(fe>d|B3)|(ed>c|A3)|(AB>c)|(c2B)|(GF>E|F3)|]
W:
W:
W:  From Musica Viva - http://www.musicaviva.com
W:  the Internet center for free sheet music downloads.
